picto/tracks-3-fr-large-framed.svg

<svg class="color-immutable" width="30" height="30" viewBox="0 0 30 30" fill="none" xmlns="http://www.w3.org/2000/svg"><path d="M30 0H0V30H30V0Z" fill="#2D327D"/><path d="M25.5 3C26.325 3 27 3.675 27 4.5V25.5C27 26.325 26.325 27 25.5 27H4.5C3.675 27 3 26.325 3 25.5V4.5C3 3.675 3.675 3 4.5 3H25.5ZM25.5 2.625H4.5C3.46613 2.625 2.625 3.46613 2.625 4.5V25.5C2.625 26.5339 3.46613 27.375 4.5 27.375H25.5C26.5339 27.375 27.375 26.5339 27.375 25.5V4.5C27.375 3.46613 26.5339 2.625 25.5 2.625Z" fill="white"/><path d="M10.4272 14.7807C10.458 13.6732 10.7318 12.7444 11.2485 11.9937C12.0852 10.7879 13.3434 10.1849 15.023 10.1849C16.315 10.1849 17.3578 10.5141 18.1515 11.1724C19.0065 11.8861 19.4343 12.8089 19.4343 13.9409C19.4343 14.6178 19.2666 15.2006 18.9313 15.6897C18.5959 16.1788 18.1422 16.5096 17.5701 16.6818C18.296 16.8479 18.8697 17.2171 19.2912 17.7892C19.7125 18.3614 19.9234 19.0535 19.9234 19.8657C19.9234 21.2008 19.4311 22.2928 18.4468 23.1418C17.5362 23.9294 16.3857 24.3231 14.9954 24.3231C13.488 24.3231 12.2928 23.8894 11.4101 23.0218C10.5272 22.1544 10.0858 20.9824 10.0858 19.5058C10.0858 19.4751 10.0858 19.4167 10.0858 19.3304H12.679C12.679 20.161 12.8759 20.8024 13.2696 21.2545C13.6633 21.7067 14.2202 21.9328 14.94 21.9328C15.6597 21.9328 16.2135 21.7206 16.6011 21.2961C16.9578 20.8963 17.1363 20.4194 17.1363 19.8657C17.1363 19.2013 16.9086 18.6752 16.4535 18.2876C16.0781 17.9677 15.4998 17.8078 14.7186 17.8078C14.4971 17.8078 14.2786 17.8201 14.0634 17.8447V15.8605C14.2233 15.8729 14.3772 15.879 14.5248 15.879C16.0751 15.879 16.8503 15.3038 16.8503 14.1532C16.8503 13.6489 16.681 13.2412 16.3427 12.9304C16.0042 12.6199 15.5583 12.4644 15.0046 12.4644C14.3709 12.4644 13.8818 12.6613 13.5373 13.055C13.1927 13.4488 13.0081 14.024 12.9836 14.7808H10.4272V14.7807Z" fill="white"/><path d="M8.03591 6L7.28839 8.24865H6.73009L5.99329 6H6.50704L7.01306 7.6842L7.52681 6H8.03591Z" fill="white"/><path d="M8.87413 6.5229C9.11818 6.5229 9.3176 6.6039 9.47248 6.7659C9.62525 6.92588 9.70168 7.13918 9.70168 7.40573C9.70168 7.68158 9.62015 7.90148 9.4571 8.06558C9.30433 8.21835 9.10543 8.29478 8.86033 8.29478C8.59888 8.29478 8.39068 8.20965 8.23588 8.03948C8.0882 7.87748 8.0144 7.66725 8.0144 7.40888C8.0144 7.15455 8.08618 6.94793 8.22973 6.789C8.38865 6.61163 8.60345 6.5229 8.87413 6.5229ZM8.8511 6.87053C8.7332 6.87053 8.63938 6.91823 8.56963 7.01355C8.4989 7.10993 8.4635 7.2417 8.4635 7.40888C8.4635 7.5822 8.49838 7.71495 8.56813 7.80728C8.6399 7.90058 8.73785 7.94723 8.8619 7.94723C8.97778 7.94723 9.06958 7.9047 9.13723 7.81958C9.2141 7.72523 9.25258 7.58835 9.25258 7.40888C9.25258 7.24073 9.21875 7.11 9.15103 7.0167C9.0803 6.91928 8.98033 6.87053 8.8511 6.87053Z" fill="white"/><path d="M10.4491 6V6.40147H10.0031V6H10.4491ZM10.4491 6.57217V8.24873H10.0031V6.57217H10.4491Z" fill="white"/><path d="M12.321 7.72575C12.2975 7.8201 12.2549 7.90875 12.1934 7.99185C12.0457 8.19382 11.8334 8.29485 11.5566 8.29485C11.3064 8.29485 11.1059 8.21587 10.9552 8.058C10.8814 7.98112 10.825 7.88827 10.786 7.7796C10.7439 7.66372 10.7229 7.54275 10.7229 7.4166C10.7229 7.17255 10.7932 6.9675 10.9337 6.80137C11.0906 6.61575 11.2936 6.52297 11.5427 6.52297C11.7437 6.52297 11.915 6.585 12.0565 6.70905C12.158 6.79822 12.2318 6.90825 12.278 7.03897C12.3241 7.1697 12.3472 7.33402 12.3472 7.53195H11.1767C11.1809 7.614 11.1937 7.68217 11.2152 7.73655C11.2757 7.88317 11.3906 7.95652 11.5598 7.95652C11.6428 7.95652 11.7105 7.9383 11.7628 7.90192C11.8151 7.86555 11.8581 7.80682 11.892 7.72582H12.321V7.72575ZM11.8919 7.23202C11.8838 7.15102 11.8653 7.08382 11.8366 7.0305C11.8079 6.97822 11.7671 6.93667 11.7143 6.90592C11.6615 6.87517 11.6039 6.8598 11.5413 6.8598C11.4419 6.8598 11.3598 6.8931 11.2952 6.95977C11.2307 7.02645 11.1922 7.1172 11.1799 7.23202H11.8919Z" fill="white"/></svg>

<svg class="color-immutable" width="30" height="30" viewBox="0 0 30 30" fill="none" xmlns="http://www.w3.org/2000/svg"><g clip-path="url(#a)"><path d="M30 0H0v30h30V0Z" fill="#2D327D"/><path d="M25.5 3c.825 0 1.5.675 1.5 1.5v21c0 .825-.675 1.5-1.5 1.5h-21c-.825 0-1.5-.675-1.5-1.5v-21C3 3.675 3.675 3 4.5 3h21Zm0-.375h-21A1.877 1.877 0 0 0 2.625 4.5v21c0 1.034.841 1.875 1.875 1.875h21a1.877 1.877 0 0 0 1.875-1.875v-21A1.877 1.877 0 0 0 25.5 2.625Z" fill="#fff"/><path d="M10.427 14.78c.031-1.107.305-2.036.822-2.786.836-1.206 2.094-1.81 3.774-1.81 1.292 0 2.335.33 3.128.988.855.714 1.283 1.637 1.283 2.769 0 .677-.167 1.26-.503 1.749-.335.489-.789.82-1.36.992.725.166 1.299.535 1.72 1.107.421.572.632 1.264.632 2.077 0 1.335-.492 2.427-1.476 3.276-.91.787-2.061 1.181-3.452 1.181-1.507 0-2.702-.434-3.585-1.301-.883-.868-1.324-2.04-1.324-3.516v-.176h2.593c0 .831.197 1.472.59 1.925.394.452.951.678 1.671.678.72 0 1.274-.212 1.661-.637.357-.4.535-.877.535-1.43 0-.665-.227-1.19-.683-1.578-.375-.32-.953-.48-1.734-.48-.222 0-.44.012-.656.037V15.86c.16.012.314.018.462.018 1.55 0 2.325-.575 2.325-1.726 0-.504-.169-.912-.507-1.223-.339-.31-.785-.466-1.338-.466-.634 0-1.123.197-1.468.591-.344.394-.529.969-.553 1.726h-2.557ZM8.036 6l-.748 2.249H6.73L5.993 6h.514l.506 1.684L7.527 6h.509ZM8.874 6.523c.244 0 .444.08.598.243.153.16.23.373.23.64 0 .276-.082.495-.245.66a.807.807 0 0 1-.597.229c-.261 0-.47-.085-.624-.256-.148-.162-.222-.372-.222-.63 0-.254.072-.461.216-.62.159-.177.373-.266.644-.266Zm-.023.348a.331.331 0 0 0-.281.143.656.656 0 0 0-.107.395c0 .173.035.306.105.398a.35.35 0 0 0 .294.14.333.333 0 0 0 .275-.127c.077-.095.116-.232.116-.411 0-.168-.034-.299-.102-.392a.349.349 0 0 0-.3-.146ZM10.45 6v.401h-.447V6h.446Zm0 .572V8.25h-.447V6.572h.446ZM12.321 7.726a.75.75 0 0 1-.128.266c-.147.202-.36.303-.636.303-.25 0-.451-.08-.602-.237a.773.773 0 0 1-.169-.278 1.055 1.055 0 0 1-.063-.363c0-.244.07-.45.21-.616a.76.76 0 0 1 .61-.278c.2 0 .372.062.514.186.101.09.175.2.221.33.046.13.07.295.07.493h-1.171c.004.082.017.15.038.205.06.146.176.22.345.22.083 0 .15-.019.203-.055a.39.39 0 0 0 .129-.176h.429Zm-.43-.494a.537.537 0 0 0-.054-.202.337.337 0 0 0-.295-.17c-.1 0-.182.033-.247.1a.447.447 0 0 0-.115.272h.712Z" fill="#fff"/></g><defs><clipPath id="a"><path fill="#fff" d="M0 0h30v30H0z"/></clipPath></defs></svg>
